img/facebook.svg

<svg width="40" height="40" viewBox="0 0 40 40" fill="none" xmlns="http://www.w3.org/2000/svg">
<path d="M37.7897 0.000976562H2.20766C0.989232 0.000976562 0 0.988249 0 2.20867V37.7913C0 39.0117 0.989232 40.0003 2.20766 40.0003H21.364V24.5102H16.1517V18.4726H21.364V14.0204C21.364 8.85481 24.5181 6.04053 29.127 6.04053C31.3366 6.04053 33.2315 6.20584 33.784 6.27763V11.677L30.5871 11.6783C28.0811 11.6783 27.5977 12.8698 27.5977 14.6171V18.4707H33.5766L32.7948 24.5076H27.5971V39.9983H37.789C39.0088 39.9983 39.9987 39.0084 39.9987 37.7913V2.20736C39.998 0.988249 39.0094 0.000976562 37.7897 0.000976562Z" fill="black"/>
</svg>

<svg width="40" height="40" fill="none" xmlns="http://www.w3.org/2000/svg"><path d="M37.79.001H2.208A2.207 2.207 0 000 2.209V37.79C0 39.01.99 40 2.208 40h19.156V24.51h-5.212v-6.038h5.212V14.02c0-5.165 3.154-7.98 7.763-7.98 2.21 0 4.104.166 4.657.238v5.399l-3.197.001c-2.506 0-2.99 1.192-2.99 2.94v3.853h5.98l-.782 6.037h-5.198v15.49H37.79c1.22 0 2.21-.99 2.21-2.207V2.207A2.209 2.209 0 0037.79.001z" fill="#000"/></svg>
